brandFactory_export/2.Regular/Lista de proyectos _2Regular.svg

<?xml version="1.0" encoding="UTF-8"?>
<svg width="24px" height="24px" viewBox="0 0 24 24" version="1.1" xmlns="http://www.w3.org/2000/svg" xmlns:xlink="http://www.w3.org/1999/xlink">
    <title>2.Regular/Lista de proyectos _2Regular</title>
    <g id="Symbols" stroke="none" stroke-width="1" fill="none" fill-rule="evenodd">
        <g id="2.Regular/Lista-de-proyectos-_2Regular" fill="#5CB615" fill-rule="nonzero">
            <path d="M8.34621849,7.91932773 C7.81176471,7.91932773 7.38151261,7.48907563 7.38151261,6.95798319 C7.38151261,6.42689076 7.81176471,5.99663866 8.34621849,5.99663866 C8.88067227,5.99663866 9.31092437,6.42689076 9.31092437,6.95798319 C9.31092437,7.48571429 8.87731092,7.91932773 8.34621849,7.91932773 Z M8.35294118,10.8941176 C8.88739496,10.8941176 9.31764706,11.3243697 9.31764706,11.8554622 C9.31764706,12.3865546 8.88739496,12.8168067 8.35294118,12.8168067 C7.81848739,12.8168067 7.38823529,12.3865546 7.38823529,11.8554622 C7.38823529,11.3243697 7.81848739,10.8941176 8.35294118,10.8941176 Z M11.6235294,7.74117647 C11.2235294,7.74117647 10.897479,7.41848739 10.897479,7.01848739 C10.897479,6.61848739 11.2235294,6.29579832 11.6235294,6.29579832 L18.2991597,6.29579832 C18.6991597,6.29579832 19.0252101,6.61848739 19.0252101,7.01848739 C19.0252101,7.41848739 18.6991597,7.74117647 18.2991597,7.74117647 L11.6235294,7.74117647 Z M18.3966387,11.1327731 C18.7966387,11.1327731 19.1226891,11.4554622 19.1226891,11.8554622 C19.1226891,12.2554622 18.7966387,12.5781513 18.3966387,12.5781513 L11.7210084,12.5781513 C11.3210084,12.5781513 10.994958,12.2554622 10.994958,11.8554622 C10.994958,11.4554622 11.3210084,11.1327731 11.7210084,11.1327731 L18.3966387,11.1327731 Z M8.35294118,15.707563 C8.88739496,15.707563 9.31764706,16.1378151 9.31764706,16.6689076 C9.31764706,17.2 8.88739496,17.6302521 8.35294118,17.6302521 C7.81848739,17.6302521 7.38823529,17.2 7.38823529,16.6689076 C7.38823529,16.1378151 7.81848739,15.707563 8.35294118,15.707563 L8.35294118,15.707563 Z M18.3966387,15.9462185 C18.7966387,15.9462185 19.1226891,16.2689076 19.1226891,16.6689076 C19.1226891,17.0689076 18.7966387,17.3915966 18.3966387,17.3915966 L11.7210084,17.3915966 C11.3210084,17.3915966 10.994958,17.0689076 10.994958,16.6689076 C10.994958,16.2689076 11.3210084,15.9462185 11.7210084,15.9462185 L18.3966387,15.9462185 L18.3966387,15.9462185 Z M20.2957983,21.7142857 L20.2957983,1.9092437 C20.2957983,1.67731092 20.1210084,1.46890756 20.0470588,1.44201681 L5.70084034,1.44537815 C5.65378151,1.46890756 5.4789916,1.67731092 5.4789916,1.9092437 L5.4789916,21.7142857 C5.4789916,21.9596639 5.63697479,22.1512605 5.70756303,22.1781513 L20.0773109,22.1781513 C20.1310924,22.1613445 20.2957983,21.9764706 20.2957983,21.7142857 Z M20.0773109,0 C20.9512605,0 21.7478992,0.91092437 21.7478992,1.9092437 L21.7478992,21.7142857 C21.7478992,22.7495798 20.9815126,23.6235294 20.0773109,23.6235294 L5.70084034,23.6235294 C4.79327731,23.6235294 4.0302521,22.7495798 4.0302521,21.7142857 L4.0302521,1.9092437 C4.0302521,0.91092437 4.82689076,0 5.70084034,0 L20.0773109,0 Z" id="Lista-de-proyectos-_2Regular"></path>
        </g>
    </g>
</svg>

<svg width="24" height="24" viewBox="0 0 24 24" xmlns="http://www.w3.org/2000/svg"><path d="M8.346 7.92a.962.962 0 110-1.923c.535 0 .965.43.965.961a.966.966 0 01-.965.961zm.007 2.974a.962.962 0 110 1.923.962.962 0 110-1.923zm3.27-3.153a.724.724 0 01-.726-.723c0-.4.327-.722.727-.722h6.675c.4 0 .726.322.726.722 0 .4-.326.723-.726.723h-6.675zm6.774 3.392c.4 0 .726.322.726.722 0 .4-.326.723-.726.723H11.72a.724.724 0 01-.726-.723c0-.4.326-.722.726-.722h6.676zM8.353 15.708a.962.962 0 110 1.922.962.962 0 110-1.922zm10.044.238c.4 0 .726.323.726.723 0 .4-.326.723-.726.723H11.72a.724.724 0 01-.726-.723c0-.4.326-.723.726-.723h6.676zm1.899 5.768V1.91c0-.232-.175-.44-.249-.467l-14.346.003c-.047.024-.222.232-.222.464v19.805c0 .246.158.437.229.464h14.37c.053-.017.218-.202.218-.464zM20.077 0c.874 0 1.67.91 1.67 1.91v19.804c0 1.036-.765 1.91-1.67 1.91H5.701c-.908 0-1.67-.874-1.67-1.91V1.91C4.03.911 4.826 0 5.7 0h14.376z" fill="#5CB615" fill-rule="nonzero"/></svg>
